svg/regular/bx-clinic.svg

<svg xmlns="http://www.w3.org/2000/svg" width="24" height="24"><path d="M12.707 2.293a.999.999 0 0 0-1.414 0l-9 9A1 1 0 0 0 3 13h1v7c0 1.103.897 2 2 2h12c1.103 0 2-.897 2-2v-7h1a.999.999 0 0 0 .707-1.707l-9-9zM18.001 20H6v-9.586l6-6 6 6V15l.001 5z"/><path d="M13 10h-2v3H8v2h3v3h2v-3h3v-2h-3z"/></svg>

<svg xmlns="http://www.w3.org/2000/svg" width="24" height="24" viewBox="0 0 24 24"><path d="M12.707,2.293c-0.391-0.391-1.023-0.391-1.414,0l-9,9c-0.286,0.286-0.372,0.716-0.217,1.09C2.23,12.757,2.596,13,3,13h1v2 v5c0,1.103,0.897,2,2,2h12c1.103,0,2-0.897,2-2v-5v-2h1c0.404,0,0.77-0.243,0.924-0.617c0.155-0.374,0.069-0.804-0.217-1.09 L12.707,2.293z M18.001,20H6v-5v-3v-1.586l6-6l6,6V15l0,0L18.001,20z"/><path d="M13 10L11 10 11 13 8 13 8 15 11 15 11 18 13 18 13 15 16 15 16 13 13 13z"/></svg>
